X:38
M:9/8
L:1/4
K:D
F/ E/ D/ | A3/2 A3/2 G/ A/ B/ | A3 A/ F/ A/ | d3/2 c c/ B/ A/ ^G/ | A3 F/ E/ D/ | A3/2 A3/2 G/ A/ B/ | A3 D/ E/ F/ | G3/2 E3/2 D/ E/ C/ | D3 A/ A/ A/ | d3/2 A3/2 B/ B/ B/ | A3 A/ A/ A/ | B3/2 d3/2 c/ c/ B/ | c3 c/ d/ e/ | d3/2 A3/2 B/ A/ B/ | A3 !sintro!D/ E/ F/ | G3/2 E3/2 D3/4 E// C/ | D3 !eintro!|]
